svgs/zarchiver.svg

<svg width="192" height="192" viewBox="0 0 192 192" fill="none" xmlns="http://www.w3.org/2000/svg">
<path d="M22 162L16.4467 159.728C15.6897 161.579 15.9041 163.684 17.0185 165.344C18.1329 167.004 20.0008 168 22 168V162ZM170 162V168C171.999 168 173.867 167.004 174.982 165.344C176.096 163.684 176.31 161.579 175.553 159.728L170 162ZM22 30V24C20.0008 24 18.1329 24.9958 17.0185 26.6557C15.9041 28.3155 15.6897 30.4214 16.4467 32.2718L22 30ZM103 30L108.553 32.2718C109.31 30.4214 109.096 28.3155 107.982 26.6557C106.867 24.9958 104.999 24 103 24V30ZM142 162L136.447 164.272C137.369 166.527 139.564 168 142 168V162ZM115 162V168C116.999 168 118.867 167.004 119.982 165.344C121.096 163.684 121.31 161.579 120.553 159.728L115 162ZM95.5 48.3333L101.053 50.6051L95.5 48.3333ZM123 47.1111L128.553 44.8393C127.631 42.5844 125.436 41.1111 123 41.1111C120.564 41.1111 118.369 42.5844 117.447 44.8393L123 47.1111ZM59.6364 136L54.0831 133.728C53.3261 135.579 53.5405 137.684 54.6549 139.344C55.7692 141.004 57.6371 142 59.6364 142V136ZM109 81.3333L103.447 79.0615C102.851 80.5175 102.851 82.1492 103.447 83.6051L109 81.3333ZM49 96L54.5533 98.2718L49 96ZM32.6364 56L27.0831 58.2718C28.0056 60.5267 30.2 62 32.6364 62V56ZM65.3636 56L70.9169 58.2718C71.6739 56.4214 71.4595 54.3155 70.3451 52.6557C69.2308 50.9958 67.3629 50 65.3636 50V56ZM104.364 136L109.917 133.728C108.994 131.473 106.8 130 104.364 130V136ZM101.053 50.6051L108.553 32.2718L97.4467 27.7282L89.9467 46.0615L101.053 50.6051ZM175.553 159.728L128.553 44.8393L117.447 49.3829L164.447 164.272L175.553 159.728ZM65.1896 138.272L101.053 50.6051L89.9467 46.0615L54.0831 133.728L65.1896 138.272ZM114.553 83.6051L128.553 49.3829L117.447 44.8393L103.447 79.0615L114.553 83.6051ZM147.553 159.728L114.553 79.0615L103.447 83.6051L136.447 164.272L147.553 159.728ZM27.5533 164.272L54.5533 98.2718L43.4467 93.7282L16.4467 159.728L27.5533 164.272ZM22 36H103V24H22V36ZM22 168H49V156H22V168ZM49 168H115V156H49V168ZM38.1896 53.7282L27.5533 27.7282L16.4467 32.2718L27.0831 58.2718L38.1896 53.7282ZM54.5533 98.2718L70.9169 58.2718L59.8104 53.7282L43.4467 93.7282L54.5533 98.2718ZM32.6364 62H65.3636V50H32.6364V62ZM120.553 159.728L109.917 133.728L98.8104 138.272L109.447 164.272L120.553 159.728ZM104.364 130H59.6364V142H104.364V130ZM142 168H170V156H142V168Z" fill="black"/>
</svg>

<svg width="192" height="192" viewBox="0 0 192 192" fill="none" xmlns="http://www.w3.org/2000/svg"><path d="m22 162-5.553-2.272A6 6 0 0 0 22 168v-6Zm148 0v6a6.002 6.002 0 0 0 5.553-8.272L170 162ZM22 30v-6a6 6 0 0 0-5.553 8.272L22 30Zm81 0 5.553 2.272A6 6 0 0 0 103 24v6Zm39 132-5.553 2.272A6 6 0 0 0 142 168v-6Zm-27 0v6a6.002 6.002 0 0 0 5.553-8.272L115 162ZM95.5 48.333l5.553 2.272-5.553-2.272Zm27.5-1.222 5.553-2.272a6 6 0 0 0-11.106 0L123 47.111ZM59.636 136l-5.553-2.272A6 6 0 0 0 59.636 142v-6ZM109 81.333l-5.553-2.272a5.997 5.997 0 0 0 0 4.544L109 81.333ZM49 96l5.553 2.272L49 96ZM32.636 56l-5.553 2.272A6 6 0 0 0 32.636 62v-6Zm32.728 0 5.553 2.272A6 6 0 0 0 65.364 50v6Zm39 80 5.553-2.272a6 6 0 0 0-5.553-3.728v6Zm-3.311-85.395 7.5-18.333-11.106-4.544-7.5 18.334 11.106 4.543Zm74.5 109.123-47-114.889-11.106 4.544 47 114.889 11.106-4.544ZM65.19 138.272l35.863-87.667-11.106-4.543-35.864 87.666 11.107 4.544Zm49.363-54.667 14-34.222-11.106-4.544-14 34.222 11.106 4.544Zm33 76.123-33-80.667-11.106 4.544 33 80.667 11.106-4.544Zm-120 4.544 27-66-11.106-4.544-27 66 11.106 4.544ZM22 36h81V24H22v12Zm0 132h27v-12H22v12Zm27 0h66v-12H49v12ZM38.19 53.728l-10.637-26-11.106 4.544 10.636 26 11.107-4.544Zm16.363 44.544 16.364-40-11.107-4.544-16.363 40 11.106 4.544ZM32.636 62h32.728V50H32.636v12Zm87.917 97.728-10.636-26-11.107 4.544 10.637 26 11.106-4.544ZM104.364 130H59.636v12h44.728v-12ZM142 168h28v-12h-28v12Z" fill="#000"/></svg>
